;FLAVOR:UltiGCode
;TIME:7135
;MATERIAL:14169
;MATERIAL2:0
;NOZZLE_DIAMETER:0.4
;MINX:66.465
;MINY:84.374
;MINZ:0.27
;MAXX:156.535
;MAXY:138.702
;MAXZ:24.12
;Generated with Cura_SteamEngine 5.2.2
M82 ;absolute extrusion mode
G0 F3000 Y50 ;avoid prime blob
G92 E0
G92 E0
G10
;LAYER_COUNT:160
;LAYER:0
M107
G0 F9000 X76.153 Y88.639 Z0.27
;TYPE:SKIRT
G11
G1 F1800 X76.751 Y88.123 E0.0853
G1 X77.398 Y87.671 E0.17054
G1 X78.088 Y87.287 E0.25583
G1 X78.813 Y86.974 E0.34111
G1 X79.566 Y86.737 E0.42637
G1 X80.34 Y86.576 E0.51175
G1 X81.232 Y86.484 E0.6086
G1 X83.297 Y86.484 E0.83162
G1 X84.086 Y86.524 E0.91694
G1 X84.866 Y86.643 E1.00215
G1 X85.631 Y86.841 E1.08749
G1 X86.371 Y87.115 E1.17272
G1 X87.08 Y87.463 E1.25802
G1 X87.751 Y87.881 E1.34339
G1 X88.132 Y88.176 E1.39544
G1 X88.791 Y87.893 E1.47289
G1 X89.544 Y87.656 E1.55815
G1 X90.317 Y87.496 E1.6434
G1 X91.208 Y87.405 E1.74013
G1 X91.913 Y86.632 E1.85312
G1 X92.502 Y86.105 E1.93848
G1 X93.141 Y85.641 E2.02377
G1 X93.823 Y85.244 E2.10899
G1 X94.542 Y84.918 E2.19425
G1 X95.291 Y84.666 E2.2796
G1 X96.061 Y84.491 E2.36488
G1 X96.845 Y84.395 E2.45019
G1 X97.653 Y84.374 E2.53748
G1 X98.442 Y84.411 E2.62279
G1 X99.223 Y84.528 E2.70808
G1 X99.988 Y84.723 E2.79334
G1 X100.73 Y84.994 E2.87865
G1 X101.44 Y85.34 E2.96395
G1 X102.112 Y85.755 E3.04925
G1 X102.738 Y86.236 E3.13451
G1 X103.313 Y86.777 E3.21978
G1 X103.851 Y87.404 E3.30901
G1 X123.604 Y87.404 E5.44233
G1 X124.393 Y87.444 E5.52765
G1 X125.173 Y87.563 E5.61287
G1 X125.938 Y87.761 E5.69821
G1 X126.678 Y88.035 E5.78343
G1 X127.201 Y88.292 E5.84637
G1 X128.099 Y87.667 E5.96453
G1 X128.79 Y87.283 E6.0499
G1 X129.515 Y86.971 E6.13515
G1 X130.268 Y86.734 E6.2204
G1 X131.042 Y86.575 E6.30574
G1 X131.924 Y86.484 E6.4015
G1 X133.992 Y86.484 E6.62485
G1 X134.781 Y86.524 E6.71017
G1 X135.561 Y86.643 E6.79538
G1 X136.326 Y86.841 E6.88073
G1 X137.066 Y87.115 E6.96595
G1 X137.775 Y87.463 E7.05125
G1 X138.446 Y87.881 E7.13663
G1 X138.752 Y88.118 E7.17843
G1 X139.277 Y87.892 E7.24016
G1 X140.03 Y87.655 E7.32541
G1 X140.803 Y87.495 E7.41067
G1 X141.686 Y87.404 E7.50654
G1 X148.735 Y87.404 E8.26783
G1 X149.524 Y87.444 E8.35315
G1 X150.304 Y87.563 E8.43837
G1 X151.069 Y87.761 E8.52371
G1 X151.809 Y88.035 E8.60893
G1 X152.518 Y88.383 E8.69423
G1 X153.189 Y88.801 E8.77961
G1 X153.813 Y89.284 E8.86483
G1 X154.386 Y89.827 E8.95009
G1 X154.901 Y90.426 E9.0354
G1 X155.352 Y91.074 E9.12067
G1 X155.736 Y91.765 E9.20604
G1 X156.048 Y92.49 E9.29129
G1 X156.285 Y93.243 E9.37654
G1 X156.444 Y94.017 E9.46188
G1 X156.535 Y94.899 E9.55764
G1 X156.535 Y127.864 E13.11786
G1 X156.495 Y128.653 E13.20319
G1 X156.376 Y129.433 E13.2884
G1 X156.178 Y130.198 E13.37374
G1 X155.904 Y130.938 E13.45896
G1 X155.556 Y131.647 E13.54426
G1 X155.138 Y132.318 E13.62964
G1 X154.655 Y132.942 E13.71486
G1 X154.112 Y133.515 E13.80012
G1 X153.513 Y134.03 E13.88544
G1 X152.865 Y134.481 E13.9707
G1 X152.174 Y134.865 E14.05608
G1 X151.449 Y135.177 E14.14132
G1 X150.696 Y135.414 E14.22658
G1 X149.922 Y135.573 E14.31192
G1 X149.04 Y135.664 E14.40768
G1 X141.993 Y135.664 E15.16875
G1 X141.204 Y135.624 E15.25408
G1 X140.424 Y135.505 E15.33929
G1 X139.659 Y135.307 E15.42463
G1 X138.744 Y134.968 E15.53002
G1 X138.124 Y135.4 E15.61163
G1 X137.434 Y135.784 E15.69691
G1 X136.708 Y136.096 E15.78225
G1 X135.955 Y136.333 E15.86751
G1 X135.182 Y136.493 E15.95276
G1 X134.299 Y136.584 E16.04863
G1 X132.23 Y136.584 E16.27208
G1 X131.441 Y136.544 E16.35741
G1 X130.661 Y136.425 E16.44262
G1 X129.896 Y136.227 E16.52796
G1 X129.156 Y135.953 E16.61319
G1 X128.447 Y135.605 E16.69848
G1 X127.776 Y135.187 E16.78386
G1 X127.187 Y134.731 E16.86431
G1 X126.15 Y135.177 E16.98623
G1 X125.397 Y135.414 E17.07148
G1 X124.624 Y135.573 E17.15671
G1 X123.741 Y135.664 E17.25258
G1 X103.322 Y135.664 E19.45784
G1 X102.954 Y136.115 E19.5207
G1 X102.396 Y136.674 E19.606
G1 X101.785 Y137.173 E19.6912
G1 X101.126 Y137.608 E19.77648
G1 X100.426 Y137.975 E19.86184
G1 X99.693 Y138.268 E19.9471
G1 X98.934 Y138.486 E20.03238
G1 X98.157 Y138.626 E20.11765
G1 X97.357 Y138.688 E20.20431
G1 X96.794 Y138.702 E20.26513
G1 X96.004 Y138.681 E20.35048
G1 X95.221 Y138.581 E20.43573
G1 X94.452 Y138.402 E20.521
G1 X93.705 Y138.147 E20.60625
G1 X92.987 Y137.817 E20.69159
G1 X92.307 Y137.416 E20.77685
G1 X91.67 Y136.949 E20.86216
G1 X91.084 Y136.419 E20.94749
G1 X90.555 Y135.833 E21.03275
G1 X90.312 Y135.502 E21.0771
G1 X89.559 Y135.307 E21.1611
G1 X88.819 Y135.033 E21.24633
G1 X88.48 Y134.866 E21.28714
G1 X87.712 Y135.401 E21.38823
G1 X87.021 Y135.785 E21.4736
G1 X86.296 Y136.097 E21.55885
G1 X85.543 Y136.334 E21.6441
G1 X84.769 Y136.493 E21.72944
G1 X83.887 Y136.584 E21.8252
G1 X81.253 Y136.584 E22.10967
G1 X80.464 Y136.544 E22.19499
G1 X79.684 Y136.425 E22.28021
G1 X78.919 Y136.227 E22.36555
G1 X78.179 Y135.953 E22.45077
G1 X77.47 Y135.605 E22.53607
G1 X76.799 Y135.187 E22.62145
G1 X76.175 Y134.704 E22.70667
G1 X75.602 Y134.161 E22.79193
G1 X75.087 Y133.562 E22.87725
G1 X74.636 Y132.914 E22.96251
G1 X74.252 Y132.223 E23.04789
G1 X73.94 Y131.498 E23.13313
G1 X73.703 Y130.745 E23.21839
G1 X73.544 Y129.971 E23.30373
G1 X73.453 Y128.794 E23.43122
G1 X73.452 Y127.975 E23.51967
G1 X73.497 Y127.056 E23.61904
G1 X72.754 Y126.948 E23.70013
G1 X71.988 Y126.756 E23.78542
G1 X71.245 Y126.488 E23.87072
G1 X70.534 Y126.146 E23.95593
G1 X69.86 Y125.733 E24.0413
G1 X69.232 Y125.255 E24.12654
G1 X68.655 Y124.715 E24.21189
G1 X68.136 Y124.12 E24.29716
G1 X67.68 Y123.476 E24.38238
G1 X67.291 Y122.789 E24.46765
G1 X66.973 Y122.066 E24.55295
G1 X66.731 Y121.314 E24.63827
G1 X66.565 Y120.542 E24.72355
G1 X66.465 Y119.629 E24.82274
G1 X66.465 Y104.036 E26.50679
G1 X66.505 Y103.247 E26.59211
G1 X66.624 Y102.467 E26.67732
G1 X66.822 Y101.702 E26.76267
G1 X67.096 Y100.962 E26.84789
G1 X67.444 Y100.253 E26.93319
G1 X67.862 Y99.582 E27.01857
G1 X68.345 Y98.958 E27.10379
G1 X68.888 Y98.385 E27.18905
G1 X69.487 Y97.87 E27.27436
G1 X70.135 Y97.419 E27.35963
G1 X70.826 Y97.035 E27.445
G1 X71.551 Y96.723 E27.53025
G1 X72.304 Y96.486 E27.6155
G1 X73.078 Y96.327 E27.70084
G1 X73.53 Y96.28 E27.74992
G1 X73.53 Y95.284 E27.85749
G1 X73.57 Y94.495 E27.94281
G1 X73.689 Y93.715 E28.02802
G1 X73.893 Y92.723 E28.1374
G1 X74.09 Y91.958 E28.22272
G1 X74.363 Y91.217 E28.308
G1 X74.71 Y90.508 E28.39325
G1 X75.127 Y89.837 E28.47858
G1 X75.609 Y89.212 E28.56382
G1 X76.153 Y88.639 E28.64915
G0 F9000 X76.546 Y88.819
G1 F1800 X77.14 Y88.331 E28.73217
G1 X77.781 Y87.907 E28.81518
G1 X78.464 Y87.551 E28.89836
G1 X79.179 Y87.269 E28.98137
G1 X79.92 Y87.062 E29.06446
G1 X80.678 Y86.934 E29.14748
G1 X81.535 Y86.884 E29.2402
G1 X83.297 Y86.884 E29.43049
G1 X84.065 Y86.924 E29.51355
G1 X84.825 Y87.043 E29.59663
G1 X85.568 Y87.241 E29.67967
G1 X86.287 Y87.515 E29.76277
G1 X86.973 Y87.862 E29.8458
G1 X87.62 Y88.278 E29.92887
G1 X88.088 Y88.653 E29.99364
G1 X88.441 Y88.47 E30.03658
G1 X89.156 Y88.188 E30.11959
G1 X89.897 Y87.982 E30.20266
G1 X90.656 Y87.853 E30.2858
G1 X91.437 Y87.808 E30.37029
G1 X91.767 Y87.378 E30.42883
G1 X92.295 Y86.819 E30.51188
G1 X92.879 Y86.318 E30.59498
G1 X93.511 Y85.88 E30.67802
G1 X94.186 Y85.51 E30.76116
G1 X94.895 Y85.212 E30.84422
G1 X95.631 Y84.99 E30.92724
G1 X96.386 Y84.845 E31.01027
G1 X97.497 Y84.766 E31.13056
G1 X98.423 Y84.811 E31.23069
G1 X99.183 Y84.928 E31.31374
G1 X99.927 Y85.123 E31.3968
G1 X100.647 Y85.394 E31.47989
G1 X101.335 Y85.739 E31.56301
G1 X101.983 Y86.153 E31.64606
G1 X102.585 Y86.632 E31.72914
G1 X103.133 Y87.171 E31.81216
G1 X103.65 Y87.804 E31.90043
G1 X123.604 Y87.804 E34.05546
G1 X124.372 Y87.844 E34.13852
G1 X125.132 Y87.963 E34.2216
G1 X125.875 Y88.161 E34.30464
G1 X126.594 Y88.435 E34.38774
G1 X127.282 Y88.783 E34.47101
G1 X127.84 Y88.326 E34.5489
G1 X128.482 Y87.903 E34.63194
G1 X129.165 Y87.548 E34.71507
G1 X129.88 Y87.267 E34.79804
G1 X130.622 Y87.061 E34.88121
G1 X131.38 Y86.933 E34.96423
G1 X132.229 Y86.884 E35.05607
G1 X133.992 Y86.884 E35.24648
G1 X134.76 Y86.924 E35.32953
G1 X135.52 Y87.043 E35.41261
G1 X136.263 Y87.241 E35.49566
G1 X136.982 Y87.515 E35.57876
G1 X137.668 Y87.862 E35.66179
G1 X138.315 Y88.278 E35.74486
G1 X138.677 Y88.567 E35.79489
G1 X139.642 Y88.187 E35.9069
G1 X140.383 Y87.981 E35.98996
G1 X141.142 Y87.853 E36.07309
G1 X141.992 Y87.804 E36.16504
G1 X148.735 Y87.804 E36.89328
G1 X149.503 Y87.844 E36.97634
G1 X150.263 Y87.963 E37.05942
G1 X151.006 Y88.161 E37.14247
G1 X151.725 Y88.435 E37.22556
G1 X152.411 Y88.782 E37.30859
G1 X153.058 Y89.198 E37.39166
G1 X153.658 Y89.679 E37.47472
G1 X154.205 Y90.22 E37.55781
G1 X154.693 Y90.815 E37.64091
G1 X155.116 Y91.457 E37.72395
G1 X155.471 Y92.14 E37.80708
G1 X155.752 Y92.855 E37.89005
G1 X155.958 Y93.597 E37.97322
G1 X156.086 Y94.355 E38.05624
G1 X156.135 Y95.204 E38.14808
G1 X156.135 Y127.864 E41.67536
G1 X156.095 Y128.632 E41.75842
G1 X155.976 Y129.392 E41.8415
G1 X155.778 Y130.135 E41.92455
G1 X155.504 Y130.854 E42.00765
G1 X155.157 Y131.54 E42.09067
G1 X154.741 Y132.187 E42.17375
G1 X154.26 Y132.787 E42.2568
G1 X153.719 Y133.334 E42.33989
G1 X153.124 Y133.822 E42.423
G1 X152.482 Y134.245 E42.50603
G1 X151.799 Y134.6 E42.58916
G1 X151.084 Y134.881 E42.67213
G1 X150.342 Y135.087 E42.7553
G1 X149.584 Y135.215 E42.83832
G1 X148.735 Y135.264 E42.93017
G1 X141.993 Y135.264 E43.6583
G1 X141.225 Y135.224 E43.74136
G1 X140.465 Y135.105 E43.82444
G1 X139.722 Y134.907 E43.90748
G1 X139.003 Y134.633 E43.99058
G1 X138.701 Y134.48 E44.02714
G1 X138.383 Y134.741 E44.07158
G1 X137.741 Y135.165 E44.15467
G1 X137.058 Y135.519 E44.23775
G1 X136.343 Y135.801 E44.32076
G1 X135.602 Y136.007 E44.40382
G1 X134.843 Y136.135 E44.48695
G1 X133.993 Y136.184 E44.57891
G1 X132.23 Y136.184 E44.76931
G1 X131.462 Y136.144 E44.85237
G1 X130.702 Y136.025 E44.93545
G1 X129.959 Y135.827 E45.01849
G1 X129.24 Y135.553 E45.10159
G1 X128.554 Y135.206 E45.18462
G1 X127.907 Y134.79 E45.26769
G1 X127.208 Y134.229 E45.36449
G1 X126.501 Y134.6 E45.45072
G1 X125.785 Y134.882 E45.53383
G1 X125.044 Y135.088 E45.61689
G1 X124.285 Y135.215 E45.7
G1 X123.438 Y135.264 E45.79163
G1 X103.14 Y135.264 E47.98382
G1 X102.576 Y135.936 E48.07857
G1 X102.023 Y136.47 E48.16159
G1 X101.418 Y136.944 E48.2446
G1 X100.766 Y137.353 E48.32772
G1 X100.076 Y137.693 E48.4108
G1 X99.354 Y137.958 E48.49386
G1 X98.609 Y138.147 E48.57687
G1 X97.702 Y138.279 E48.67585
G1 X96.784 Y138.302 E48.77503
G1 X96.015 Y138.281 E48.85811
G1 X95.253 Y138.18 E48.94113
G1 X94.505 Y138.001 E49.02419
G1 X93.779 Y137.745 E49.10733
G1 X93.084 Y137.416 E49.19038
G1 X92.427 Y137.015 E49.27351
G1 X91.816 Y136.549 E49.3565
G1 X91.255 Y136.022 E49.43962
G1 X90.753 Y135.44 E49.52263
G1 X90.556 Y135.156 E49.55996
G1 X89.622 Y134.907 E49.66436
G1 X88.903 Y134.633 E49.74746
G1 X88.409 Y134.383 E49.80725
G1 X87.971 Y134.742 E49.86841
G1 X87.329 Y135.165 E49.95145
G1 X86.646 Y135.52 E50.03458
G1 X85.931 Y135.801 E50.11755
G1 X85.189 Y136.007 E50.20072
G1 X84.431 Y136.135 E50.28374
G1 X83.582 Y136.184 E50.37558
G1 X81.253 Y136.184 E50.62712
G1 X80.485 Y136.144 E50.71017
G1 X79.725 Y136.025 E50.79325
G1 X78.982 Y135.827 E50.8763
G1 X78.263 Y135.553 E50.9594
G1 X77.577 Y135.206 E51.04242
G1 X76.93 Y134.79 E51.1255
G1 X76.33 Y134.309 E51.20855
G1 X75.783 Y133.768 E51.29164
G1 X75.295 Y133.173 E51.37475
G1 X74.872 Y132.531 E51.45778
G1 X74.517 Y131.848 E51.54091
G1 X74.236 Y131.133 E51.62388
G1 X74.03 Y130.391 E51.70705
G1 X73.902 Y129.633 E51.79007
G1 X73.853 Y128.793 E51.88095
G1 X73.852 Y127.974 E51.9694
G1 X73.891 Y127.206 E52.05245
G1 X73.93 Y126.681 E52.10931
G1 X73.354 Y126.64 E52.17167
G1 X72.597 Y126.506 E52.2547
G1 X71.858 Y126.293 E52.33776
G1 X71.144 Y126.006 E52.42087
G1 X70.465 Y125.646 E52.50387
G1 X69.826 Y125.217 E52.58699
G1 X69.236 Y124.724 E52.67003
G1 X68.699 Y124.173 E52.75312
G1 X68.223 Y123.569 E52.83618
G1 X67.812 Y122.918 E52.91932
G1 X67.471 Y122.229 E53.00235
G1 X67.203 Y121.508 E53.08542
G1 X67.012 Y120.763 E53.16849
G1 X66.899 Y120.002 E53.25158
G1 X66.865 Y119.296 E53.32791
G1 X66.865 Y104.036 E54.97599
G1 X66.905 Y103.268 E55.05905
G1 X67.024 Y102.508 E55.14213
G1 X67.222 Y101.765 E55.22517
G1 X67.496 Y101.046 E55.30827
G1 X67.843 Y100.36 E55.3913
G1 X68.259 Y99.713 E55.47437
G1 X68.74 Y99.113 E55.55743
G1 X69.281 Y98.566 E55.64051
G1 X69.876 Y98.078 E55.72362
G1 X70.518 Y97.655 E55.80666
G1 X71.201 Y97.3 E55.88979
G1 X71.916 Y97.019 E55.97276
G1 X72.658 Y96.813 E56.05593
G1 X73.416 Y96.685 E56.13895
G1 X73.93 Y96.652 E56.19458
G1 X73.93 Y95.284 E56.34232
G1 X73.97 Y94.516 E56.42538
G1 X74.089 Y93.756 E56.50846
G1 X74.207 Y93.313 E56.55797
G1 X74.293 Y92.764 E56.61798
G1 X74.49 Y92.02 E56.7011
G1 X74.763 Y91.301 E56.78416
G1 X75.109 Y90.614 E56.86724
G1 X75.525 Y89.967 E56.95031
G1 X76.005 Y89.367 E57.0333
G1 X76.546 Y88.819 E57.11646
G0 F9000 X76.938 Y89.005
G1 F1800 X77.527 Y88.545 E57.19718
G1 X78.163 Y88.15 E57.27803
G1 X78.836 Y87.825 E57.35875
G1 X79.541 Y87.574 E57.43957
G1 X80.269 Y87.4 E57.52041
G1 X81.164 Y87.284 E57.61788
G1 X83.297 Y87.284 E57.84824
G1 X84.044 Y87.324 E57.92903
G1 X84.782 Y87.443 E58.00977
G1 X85.504 Y87.641 E58.09062
G1 X86.2 Y87.914 E58.17137
G1 X86.863 Y88.261 E58.25218
G1 X87.486 Y88.676 E58.33303
G1 X88.023 Y89.124 E58.40856
G1 X88.813 Y88.744 E58.50323
G1 X89.518 Y88.493 E58.58406
G1 X90.246 Y88.319 E58.6649
G1 X90.988 Y88.223 E58.7457
G1 X91.629 Y88.204 E58.81496
G1 X92.152 Y87.544 E58.9059
G1 X92.676 Y87.01 E58.9867
G1 X93.254 Y86.535 E59.0675
G1 X93.88 Y86.125 E59.14832
G1 X94.545 Y85.784 E59.22903
G1 X95.244 Y85.516 E59.30988
G1 X95.967 Y85.324 E59.39067
G1 X96.706 Y85.21 E59.47143
G1 X97.522 Y85.167 E59.55968
G1 X98.403 Y85.211 E59.65495
G1 X99.142 Y85.328 E59.73575
G1 X99.864 Y85.523 E59.81652
G1 X100.561 Y85.794 E59.89729
G1 X101.226 Y86.138 E59.97815
G1 X101.85 Y86.551 E60.05896
G1 X102.426 Y87.028 E60.13973
G1 X102.948 Y87.563 E60.22046
G1 X103.451 Y88.204 E60.30846
G1 X123.604 Y88.204 E62.48498
G1 X124.351 Y88.244 E62.56577
G1 X125.089 Y88.363 E62.64651
G1 X125.811 Y88.561 E62.72736
G1 X126.507 Y88.834 E62.80811
G1 X127.352 Y89.276 E62.9111
G1 X127.637 Y89 E62.95395
G1 X128.227 Y88.541 E63.03468
G1 X128.863 Y88.146 E63.11553
G1 X129.537 Y87.822 E63.1963
G1 X130.242 Y87.572 E63.27709
G1 X130.97 Y87.398 E63.35792
G1 X131.86 Y87.284 E63.45483
G1 X133.992 Y87.284 E63.68509
G1 X134.739 Y87.324 E63.76588
G1 X135.477 Y87.443 E63.84661
G1 X136.199 Y87.641 E63.92747
G1 X136.895 Y87.914 E64.00821
G1 X137.558 Y88.261 E64.08903
G1 X138.181 Y88.676 E64.16987
G1 X138.641 Y89.06 E64.23459
G1 X139.299 Y88.743 E64.31347
G1 X140.004 Y88.492 E64.39429
G1 X140.731 Y88.318 E64.47502
G1 X141.621 Y88.204 E64.57193
G1 X148.735 Y88.204 E65.34024
G1 X149.482 Y88.244 E65.42103
G1 X150.22 Y88.363 E65.50177
G1 X150.942 Y88.561 E65.58262
G1 X151.638 Y88.834 E65.66337
G1 X152.301 Y89.181 E65.74418
G1 X152.924 Y89.596 E65.82503
G1 X153.498 Y90.075 E65.90577
G1 X154.019 Y90.612 E65.98658
G1 X154.478 Y91.202 E66.06731
G1 X154.873 Y91.838 E66.14817
G1 X155.197 Y92.512 E66.22893
G1 X155.447 Y93.217 E66.30972
G1 X155.621 Y93.945 E66.39056
G1 X155.735 Y94.835 E66.48746
G1 X155.735 Y127.864 E70.05459
G1 X155.695 Y128.611 E70.13538
G1 X155.576 Y129.349 E70.21612
G1 X155.378 Y130.071 E70.29697
G1 X155.105 Y130.767 E70.37772
G1 X154.758 Y131.43 E70.45853
G1 X154.343 Y132.053 E70.53938
G1 X153.864 Y132.627 E70.62012
G1 X153.327 Y133.148 E70.70093
G1 X152.737 Y133.607 E70.78166
G1 X152.101 Y134.002 E70.86252
G1 X151.427 Y134.326 E70.94328
G1 X150.722 Y134.576 E71.02407
G1 X149.994 Y134.75 E71.10491
G1 X149.104 Y134.864 E71.20181
G1 X141.993 Y134.864 E71.9698
G1 X141.246 Y134.824 E72.05059
G1 X140.508 Y134.705 E72.13133
G1 X139.786 Y134.507 E72.21218
G1 X139.09 Y134.234 E72.29292
G1 X138.66 Y134.009 E72.34534
G1 X137.996 Y134.527 E72.43629
G1 X137.36 Y134.921 E72.51709
G1 X136.686 Y135.245 E72.59786
G1 X135.981 Y135.496 E72.67868
G1 X135.253 Y135.67 E72.75952
G1 X134.363 Y135.784 E72.85642
G1 X132.23 Y135.784 E73.08679
G1 X131.483 Y135.744 E73.16758
G1 X130.745 Y135.625 E73.24831
G1 X130.023 Y135.427 E73.32917
G1 X129.327 Y135.154 E73.40991
G1 X128.664 Y134.807 E73.49073
G1 X128.041 Y134.392 E73.57157
